.icc/lappy.ti3
CTI3   

DESCRIPTOR "Argyll Calibration Target chart information 3"
ORIGINATOR "Argyll dispread"
CREATED "Sun Jan  2 16:12:18 2011"
KEYWORD "DEVICE_CLASS"
DEVICE_CLASS "DISPLAY"
KEYWORD "COLOR_REP"
COLOR_REP "RGB_XYZ"
KEYWORD "TARGET_INSTRUMENT"
TARGET_INSTRUMENT "Datacolor Spyder3"
KEYWORD "INSTRUMENT_TYPE_SPECTRAL"
INSTRUMENT_TYPE_SPECTRAL "NO"
KEYWORD "LUMINANCE_XYZ_CDM2"
LUMINANCE_XYZ_CDM2 "158.178305 165.393498 204.768956"
KEYWORD "NORMALIZED_TO_Y_100"
NORMALIZED_TO_Y_100 "YES"

NUMBER_OF_FIELDS 7
BEGIN_DATA_FORMAT
SAMPLE_ID RGB_R RGB_G RGB_B XYZ_X XYZ_Y XYZ_Z 
END_DATA_FORMAT

NUMBER_OF_SETS 500
BEGIN_DATA
1 100.00 100.00 100.00 95.638 100.00 123.81 
2 100.00 100.00 100.00 95.628 100.01 123.80 
3 100.00 100.00 100.00 95.653 100.02 123.80 
4 100.00 100.00 100.00 95.657 100.02 123.79 
5 100.00 100.00 100.00 95.668 100.00 123.84 
6 0.0000 0.0000 0.0000 0.32613 0.29952 0.59216 
7 0.0000 100.00 0.0000 34.878 60.385 14.957 
8 0.0000 0.0000 100.00 21.704 16.396 105.45 
9 100.00 0.0000 0.0000 39.438 23.518 4.3197 
10 100.00 100.00 0.0000 74.073 83.712 18.714 
11 0.0000 100.00 100.00 56.284 76.554 119.82 
12 100.00 0.0000 100.00 60.908 39.661 109.32 
13 0.0000 60.053 100.00 30.669 32.498 110.66 
14 0.0000 49.773 0.0000 6.0664 10.654 3.9953 
15 0.0000 0.0000 41.603 2.2303 1.4899 10.856 
16 100.00 0.0000 58.069 43.852 26.132 26.911 
17 100.00 57.951 100.00 71.528 58.736 115.32 
18 100.00 51.467 0.0000 47.478 37.995 9.0361 
19 49.592 0.0000 0.0000 6.7429 4.1440 1.6901 
20 0.0000 100.00 46.668 38.177 62.292 31.883 
21 100.00 100.00 47.734 77.632 85.764 36.814 
22 46.227 100.00 0.0000 40.392 63.699 15.873 
23 51.411 100.00 100.00 65.346 81.992 121.28 
24 50.736 0.0000 100.00 30.402 21.596 106.87 
25 0.0000 39.174 46.696 6.5355 7.9338 17.539 
26 100.00 55.855 48.994 52.466 42.841 27.266 
27 48.133 45.474 0.0000 11.776 13.593 4.8481 
28 45.213 0.0000 44.252 8.3819 5.0822 13.307 
29 55.182 51.097 100.00 39.515 35.556 111.33 
30 54.732 100.00 59.737 50.299 69.590 47.332 
31 0.0000 29.197 100.00 23.285 19.256 106.34 
32 0.0000 0.0000 78.587 9.8903 6.1239 49.305 
33 100.00 27.878 0.0000 41.269 26.859 5.4573 
34 0.0000 100.00 64.553 42.110 64.689 51.962 
35 100.00 21.170 100.00 61.826 41.347 109.76 
36 100.00 0.0000 20.973 39.813 23.724 6.1535 
37 0.0000 24.213 0.0000 1.3903 2.1188 1.2157 
38 67.984 100.00 0.0000 48.532 68.554 17.028 
39 75.378 0.0000 0.0000 18.155 10.959 3.2367 
40 100.00 100.00 69.289 82.628 88.820 62.284 
41 24.692 100.00 100.00 57.876 77.487 120.00 
42 0.0000 74.871 0.0000 15.775 27.922 9.0473 
43 75.301 0.0000 100.00 43.336 29.316 108.36 
44 24.920 0.0000 0.0000 1.5868 1.0555 0.81582 
45 100.00 100.00 24.249 74.701 84.008 22.031 
46 50.426 48.723 57.339 19.125 19.071 30.362 
47 100.00 0.0000 79.262 49.092 29.386 53.482 
48 71.951 75.024 100.00 59.080 59.988 117.74 
49 100.00 81.147 100.00 83.395 79.702 120.58 
50 24.449 0.0000 100.00 23.236 17.308 105.56 
51 100.00 75.693 0.0000 58.769 58.053 14.548 
52 32.754 100.00 33.654 39.057 62.828 23.268 
53 0.0000 80.300 100.00 40.299 49.614 115.19 
54 76.820 100.00 100.00 78.715 89.933 122.73 
55 0.0000 0.0000 20.830 0.72445 0.51260 2.4033 
56 0.0000 100.00 23.211 35.403 60.627 17.788 
57 100.00 31.852 64.279 48.310 31.938 37.902 
58 22.835 100.00 0.0000 35.860 60.933 15.127 
59 0.0000 67.116 69.159 20.015 26.252 47.325 
60 31.948 71.670 100.00 39.903 45.490 114.18 
61 0.0000 31.434 66.543 9.1178 7.9193 36.736 
62 69.352 70.402 0.0000 30.086 36.429 11.212 
63 0.0000 69.135 32.382 14.197 23.648 14.054 
64 30.669 68.431 0.0000 16.161 26.200 8.6075 
65 69.192 0.0000 69.184 23.449 14.128 37.934 
66 35.157 0.0000 72.529 11.356 6.9113 40.211 
67 100.00 66.968 66.357 61.224 54.167 48.247 
68 73.619 27.768 0.0000 18.824 13.403 4.1051 
69 35.353 100.00 71.308 47.352 67.900 62.031 
70 31.261 31.479 100.00 26.710 22.031 107.06 
71 71.134 0.0000 29.999 17.966 10.829 7.6154 
72 100.00 23.883 29.875 41.662 26.374 10.022 
73 70.048 100.00 31.962 52.191 70.668 24.107 
74 32.350 0.0000 29.387 3.7277 2.3186 5.3689 
75 100.00 74.668 28.865 59.150 57.563 19.098 
76 75.895 28.468 100.00 45.499 32.725 109.36 
77 26.023 28.616 0.0000 3.4219 4.2011 1.8766 
78 0.0000 30.372 30.498 3.2774 4.1487 7.1116 
79 69.516 100.00 70.928 60.109 75.510 63.221 
80 53.978 73.676 27.720 26.473 35.854 15.314 
81 26.992 73.446 55.169 22.907 33.103 33.152 
82 48.747 27.774 28.294 9.5996 7.8175 7.1018 
83 69.055 49.919 23.579 22.789 21.820 9.5771 
84 26.533 54.191 34.303 11.142 16.112 12.704 
85 48.823 76.927 73.088 34.871 42.789 57.628 
86 79.515 50.557 75.872 39.739 32.412 56.937 
87 25.727 25.519 50.660 6.5852 5.5486 19.349 
88 52.863 21.163 0.0000 8.6690 6.3126 2.3733 
89 69.168 27.093 51.906 21.631 14.894 22.872 
90 100.00 43.516 19.207 45.082 33.331 9.2121 
91 73.858 76.269 53.804 41.977 47.125 35.330 
92 25.950 53.095 75.406 18.811 20.266 53.802 
93 0.0000 21.519 49.970 4.5491 3.6732 18.227 
94 77.197 54.716 100.00 52.888 45.281 113.23 
95 0.0000 48.953 21.354 6.2892 10.501 6.0604 
96 49.468 21.625 73.067 17.075 11.441 45.529 
97 23.314 49.873 100.00 29.250 28.454 109.04 
98 83.583 0.0000 41.583 26.908 16.142 13.968 
99 78.682 48.907 0.0000 26.834 24.051 7.3049 
100 19.848 100.00 53.406 40.213 63.444 38.737 
101 0.0000 50.889 79.804 17.553 18.147 60.749 
102 0.0000 79.418 50.698 22.021 34.603 29.076 
103 100.00 50.264 80.268 58.118 43.923 65.790 
104 48.847 78.462 0.0000 25.896 38.480 11.796 
105 49.654 77.643 100.00 48.888 55.048 116.46 
106 22.509 0.0000 45.147 3.7859 2.3282 13.014 
107 73.138 100.00 49.987 57.002 73.491 37.643 
108 57.581 0.0000 82.606 21.906 13.401 58.061 
109 58.228 18.491 100.00 34.233 24.605 107.38 
110 49.189 100.00 23.293 42.133 64.626 18.884 
111 20.665 47.333 0.0000 6.6020 10.717 4.0107 
112 100.00 75.485 47.767 61.919 59.807 30.971 
113 100.00 18.672 46.806 42.798 26.277 18.849 
114 48.252 0.0000 19.163 7.1235 4.3630 3.2228 
115 23.253 86.704 77.812 36.091 50.026 67.113 
116 0.0000 82.911 84.609 33.783 44.693 78.005 
117 52.226 100.00 77.988 54.516 72.287 73.816 
118 0.0000 0.0000 59.531 4.9300 3.1222 24.717 
119 0.0000 45.113 100.00 26.161 24.506 107.72 
120 100.00 83.381 82.905 75.909 73.853 79.928 
121 70.056 23.951 27.313 18.086 12.307 7.4328 
122 76.508 52.979 49.950 31.872 28.463 26.017 
123 84.351 100.00 17.393 59.379 74.930 19.551 
124 84.730 82.969 0.0000 46.690 54.829 15.279 
125 17.145 85.528 100.00 44.854 56.984 116.66 
126 22.503 24.214 24.653 3.0391 3.2257 4.4626 
127 27.391 74.772 22.482 19.301 31.571 12.476 
128 0.0000 100.00 83.230 48.180 68.636 82.825 
129 76.791 18.814 76.599 31.247 19.648 51.865 
130 0.0000 16.842 83.367 12.591 8.4254 60.914 
131 78.126 72.623 79.630 49.726 49.467 68.656 
132 0.0000 14.740 13.264 0.78547 0.96232 1.4410 
133 100.00 17.475 83.366 51.758 31.841 64.632 
134 100.00 40.491 100.00 65.274 47.708 111.58 
135 23.402 23.908 78.087 12.626 9.1117 52.458 
136 17.486 15.629 100.00 22.643 17.439 105.42 
137 75.704 80.281 24.316 40.956 49.304 17.223 
138 12.805 13.067 0.0000 0.82636 0.92554 0.79026 
139 87.474 14.140 0.0000 26.339 16.267 4.1093 
140 0.0000 84.435 14.803 21.667 38.092 12.337 
141 100.00 0.0000 36.864 40.833 24.328 11.833 
142 17.990 0.0000 82.474 11.850 7.3937 56.366 
143 82.522 0.0000 18.048 23.899 14.381 5.0799 
144 49.763 51.714 77.182 25.215 24.024 57.585 
145 100.00 18.824 14.291 40.191 24.817 5.5585 
146 81.710 0.0000 84.079 36.158 21.955 62.429 
147 56.645 71.681 51.976 29.957 36.650 31.113 
148 15.970 0.0000 13.636 0.84316 0.60889 1.2759 
149 82.015 14.343 100.00 47.756 32.378 108.60 
150 23.919 49.191 49.759 11.209 14.097 22.302 
151 33.242 87.165 0.0000 27.510 45.574 13.219 
152 50.427 49.968 30.422 15.307 17.132 11.102 
153 100.00 86.578 13.031 65.467 69.538 17.679 
154 58.688 64.612 100.00 46.038 45.615 113.88 
155 16.478 100.00 16.955 35.526 60.669 16.264 
156 100.00 46.829 62.509 51.734 38.489 38.979 
157 83.253 100.00 84.112 73.817 84.023 87.788 
158 0.0000 61.156 51.819 13.492 19.288 25.651 
159 100.00 67.451 85.699 67.775 58.655 80.878 
160 0.0000 64.069 14.032 11.059 19.387 7.3921 
161 0.0000 46.214 62.558 11.178 12.547 34.406 
162 86.393 64.323 0.0000 37.812 37.605 10.856 
163 84.604 0.0000 63.010 31.432 18.844 31.313 
164 0.0000 13.950 100.00 21.909 16.867 105.14 
165 38.608 14.575 100.00 26.504 19.710 105.98 
166 0.0000 87.367 34.091 24.918 42.203 19.782 
167 100.00 64.307 13.400 52.821 47.464 12.443 
168 100.00 37.613 42.529 45.428 31.654 18.223 
169 51.912 0.0000 64.411 14.112 8.5289 30.669 
170 54.446 24.224 48.360 13.682 9.6859 18.569 
171 14.946 65.973 100.00 34.068 38.159 111.82 
172 100.00 14.786 65.817 46.108 27.993 36.888 
173 37.981 100.00 89.224 54.608 72.868 95.335 
174 35.265 13.427 0.0000 3.5337 2.5826 1.3083 
175 12.553 63.241 0.0000 11.272 19.674 6.7344 
176 0.0000 14.744 33.260 1.7224 1.6363 7.0602 
177 64.978 55.357 0.0000 21.169 23.048 7.4967 
178 38.462 100.00 51.889 42.995 65.117 37.341 
179 37.299 38.943 15.669 7.5017 8.8656 4.3612 
180 63.053 0.0000 12.639 12.362 7.5115 3.0354 
181 100.00 84.573 62.129 70.189 70.829 48.161 
182 63.779 100.00 15.791 47.398 67.790 17.930 
183 86.951 36.779 16.606 30.180 22.167 7.2119 
184 45.325 56.781 14.844 14.992 19.765 7.6570 
185 63.635 89.451 100.00 62.936 72.287 120.10 
186 87.626 68.886 100.00 65.954 60.338 116.58 
187 65.321 61.128 64.219 31.687 31.962 41.850 
188 37.355 88.819 100.00 51.855 64.963 118.35 
189 61.124 36.786 81.974 27.474 20.725 63.896 
190 13.598 100.00 35.725 36.848 61.401 23.937 
191 61.195 39.085 13.106 15.268 13.843 5.3452 
192 82.145 62.663 35.341 37.258 36.406 18.277 
193 37.966 0.0000 88.310 17.690 11.116 68.984 
194 13.602 0.0000 32.065 1.6849 1.0922 6.1133 
195 14.545 84.290 0.0000 22.492 39.341 11.814 
196 0.0000 34.765 13.003 2.8696 4.7322 2.7404 
197 35.373 100.00 13.700 37.992 62.139 16.241 
198 85.613 38.291 36.661 31.639 23.397 14.314 
199 37.460 39.186 83.184 19.930 16.782 64.900 
200 86.021 100.00 38.836 63.274 77.219 29.114 
201 37.525 62.968 64.061 21.868 26.793 40.204 
202 84.566 100.00 62.025 67.021 79.494 51.657 
203 16.586 13.723 58.996 6.0323 4.0467 25.982 
204 41.087 81.855 35.398 27.630 41.658 20.321 
205 19.927 68.745 82.125 26.653 32.306 69.822 
206 14.672 43.758 86.628 18.810 17.193 72.469 
207 17.816 100.00 86.503 50.069 69.962 89.419 
208 37.391 40.489 64.566 14.397 13.482 36.266 
209 49.752 62.469 0.0000 18.025 24.320 8.1094 
210 62.869 40.902 41.936 19.090 16.515 16.470 
211 0.0000 66.856 86.037 25.714 29.997 76.243 
212 39.766 56.324 100.00 35.213 34.900 110.89 
213 63.222 85.290 0.0000 35.494 49.289 14.273 
214 19.998 32.660 64.166 9.6439 8.6410 33.942 
215 45.381 87.882 62.482 37.764 52.232 45.813 
216 65.082 12.323 0.0000 12.857 8.1050 2.6854 
217 85.853 87.783 100.00 75.575 78.710 121.04 
218 61.534 85.614 62.028 42.727 54.099 45.758 
219 63.772 87.006 37.493 40.023 53.280 24.141 
220 14.836 36.267 100.00 24.860 21.716 106.75 
221 34.319 41.260 33.278 8.6931 10.231 10.203 
222 85.846 38.083 85.919 43.973 31.112 73.013 
223 13.653 63.408 42.121 13.795 21.361 18.537 
224 80.771 41.277 63.681 34.054 25.680 38.034 
225 64.563 38.104 62.900 23.551 18.392 35.473 
226 65.603 100.00 88.763 64.857 78.958 96.178 
227 100.00 34.277 83.826 54.772 36.694 68.950 
228 21.687 44.184 19.370 6.3613 9.6631 5.3059 
229 59.969 13.258 19.406 11.675 7.4389 4.1047 
230 85.417 13.319 37.940 28.191 17.295 12.905 
231 40.409 14.641 59.767 10.291 6.6687 27.624 
232 65.275 60.341 39.290 26.521 28.498 18.829 
233 35.595 17.388 34.997 5.4819 3.9718 8.5150 
234 18.205 59.395 61.475 16.225 21.141 36.068 
235 0.0000 15.006 65.081 6.8309 4.5889 32.269 
236 37.220 60.010 43.721 16.505 21.967 20.008 
237 20.521 82.230 39.028 23.925 39.013 21.581 
238 62.966 9.0041 39.502 15.002 9.2277 12.136 
239 34.921 64.201 80.028 26.615 30.357 64.777 
240 0.0000 84.431 67.488 28.874 42.374 49.256 
241 13.118 33.067 44.117 5.3489 6.0512 14.576 
242 66.045 9.2803 85.626 27.751 17.220 66.502 
243 41.426 15.055 18.574 5.4732 3.8405 3.1250 
244 41.616 83.449 19.512 27.398 42.760 14.451 
245 89.720 61.584 53.840 45.363 40.782 32.286 
246 64.211 81.147 81.330 47.179 53.578 74.461 
247 60.908 62.656 14.762 22.872 27.554 9.7226 
248 64.369 14.357 63.835 20.085 12.535 32.885 
249 100.00 88.608 38.129 68.619 72.944 27.121 
250 17.295 0.0000 60.486 5.7071 3.4860 25.494 
251 85.458 22.221 61.990 33.168 21.046 33.316 
252 88.697 37.435 0.0000 30.649 22.548 6.0489 
253 34.765 0.0000 11.771 3.2925 2.0794 1.5741 
254 11.839 34.314 0.0000 2.9973 4.8886 2.1229 
255 19.584 59.798 20.565 11.080 18.306 8.2854 
256 60.255 69.588 81.075 38.402 40.797 69.544 
257 17.272 100.00 70.415 44.147 65.897 59.968 
258 82.497 64.325 16.798 36.150 36.527 11.939 
259 35.366 50.505 0.0000 9.8483 13.978 5.0094 
260 19.641 12.246 37.546 2.9441 2.1225 9.3190 
261 35.217 11.877 80.864 14.748 9.4094 56.224 
262 84.885 59.225 66.534 43.605 38.434 45.566 
263 81.804 86.945 65.158 56.166 63.215 50.820 
264 85.587 81.090 41.795 50.230 55.436 26.872 
265 0.0000 34.638 84.300 15.243 12.457 65.550 
266 46.884 37.525 100.00 32.278 26.754 108.20 
267 15.019 46.458 35.806 7.3596 10.649 11.637 
268 54.009 100.00 41.230 45.919 66.844 28.829 
269 41.405 78.725 85.935 38.036 46.170 80.465 
270 85.674 39.813 100.00 53.893 40.428 110.81 
271 38.066 65.452 27.989 17.343 25.396 12.539 
272 61.733 86.158 19.824 36.606 50.694 16.415 
273 41.085 32.439 0.0000 6.8086 7.0721 2.7636 
274 16.422 82.599 58.261 27.081 41.165 38.233 
275 0.0000 51.723 36.684 8.2013 12.524 12.526 
276 83.538 17.404 16.730 24.754 15.535 5.2265 
277 85.550 62.260 84.655 51.673 45.276 75.986 
278 65.154 51.010 84.774 34.543 29.676 72.635 
279 23.240 13.816 9.4890 1.7545 1.5339 1.2736 
280 100.00 100.00 85.776 88.033 92.410 90.772 
281 85.809 26.802 43.415 30.422 20.096 17.242 
282 83.528 100.00 0.0000 57.430 73.705 17.857 
283 36.458 37.552 50.719 10.593 10.372 21.036 
284 12.110 22.116 14.195 1.5530 2.0572 1.9627 
285 32.793 77.393 71.515 30.065 40.114 54.253 
286 52.537 87.329 89.569 49.240 59.550 91.914 
287 53.354 85.491 49.568 35.904 49.270 31.879 
288 65.861 0.0000 49.875 17.414 10.488 18.348 
289 54.418 0.0000 32.518 10.279 6.2257 7.7110 
290 87.646 51.467 11.995 34.337 29.482 8.8999 
291 100.00 57.305 32.625 50.655 42.326 16.548 
292 86.034 12.893 52.343 30.821 18.827 22.523 
293 15.963 73.054 10.531 16.312 28.331 9.5100 
294 13.913 11.176 21.838 1.2264 1.0724 2.8217 
295 16.187 57.194 88.987 23.973 25.191 79.966 
296 47.051 67.144 92.004 36.539 38.597 91.226 
297 14.410 89.292 25.999 26.872 46.123 16.731 
298 65.811 40.244 100.00 41.424 33.092 109.64 
299 36.199 0.0000 56.384 7.8798 4.7822 22.239 
300 63.699 39.406 27.956 17.692 15.265 9.0620 
301 88.574 10.001 74.801 37.810 22.965 47.816 
302 12.898 73.848 71.272 24.703 33.663 51.861 
303 71.112 74.440 35.001 35.815 41.996 20.003 
304 79.087 88.403 81.869 61.244 67.868 78.085 
305 91.076 7.3319 92.304 47.241 29.127 82.756 
306 31.327 27.106 62.714 10.164 7.9596 31.876 
307 14.255 8.1781 71.964 8.5037 5.3528 40.145 
308 82.676 50.526 28.101 31.722 27.464 12.065 
309 72.071 89.719 11.973 43.685 57.801 16.500 
310 46.768 26.748 88.078 22.286 15.699 73.263 
311 35.495 51.863 85.087 23.705 23.141 70.950 
312 90.621 44.693 53.616 39.806 30.281 28.531 
313 24.304 84.895 12.537 24.385 41.476 12.915 
314 88.375 24.768 91.212 46.014 29.814 82.685 
315 74.099 41.168 11.116 22.092 18.482 6.1683 
316 88.320 76.642 88.728 62.941 60.622 89.277 
317 86.457 90.636 50.617 58.861 67.880 36.272 
318 9.9319 75.593 89.443 31.901 39.308 85.298 
319 90.392 89.063 27.500 57.336 65.661 21.167 
320 44.802 26.151 13.624 7.0207 5.9472 2.9798 
321 91.253 75.251 14.458 48.260 50.470 14.652 
322 24.616 40.121 76.856 15.205 13.858 52.466 
323 72.765 75.100 67.919 43.606 47.352 50.408 
324 63.263 61.155 51.850 27.691 29.478 28.265 
325 48.714 63.358 36.265 20.406 26.209 16.676 
326 11.487 45.275 71.062 13.311 13.835 44.415 
327 49.243 39.201 72.126 19.710 16.470 46.429 
328 12.632 25.343 88.895 16.050 11.661 73.674 
329 54.310 49.541 12.083 15.241 16.982 6.3260 
330 9.3798 91.257 92.472 43.869 58.464 97.832 
331 51.345 59.708 66.888 25.435 27.341 43.815 
332 28.016 71.595 39.999 19.281 29.606 19.643 
333 61.960 38.948 0.0000 14.728 13.294 4.5150 
334 53.889 14.046 31.151 10.063 6.4989 7.3062 
335 35.518 51.933 57.402 15.431 17.784 29.752 
336 69.746 24.116 13.234 16.665 11.458 4.2865 
337 60.785 25.521 36.496 14.613 10.429 11.163 
338 49.301 30.492 61.336 15.309 11.769 31.869 
339 47.698 69.430 16.033 21.003 29.686 10.682 
340 42.167 74.265 59.804 27.520 36.530 38.769 
341 61.632 22.455 80.954 24.614 16.216 59.114 
342 45.768 8.7212 71.752 14.283 8.8403 40.697 
343 37.036 90.279 79.951 42.488 57.379 72.312 
344 34.300 86.358 51.059 31.280 47.170 32.421 
345 31.986 50.547 12.807 9.3476 13.609 5.4666 
346 52.201 87.564 29.267 34.320 50.212 19.106 
347 73.235 37.384 75.162 31.462 23.061 52.092 
348 34.708 6.5128 42.194 5.5644 3.5025 11.850 
349 7.8395 92.198 7.9224 27.939 48.950 13.841 
350 9.8288 34.802 56.367 7.6339 7.7415 25.628 
351 10.318 70.129 57.366 18.848 27.478 32.971 
352 77.707 37.421 50.911 28.042 20.907 23.754 
353 49.121 11.227 87.939 21.419 13.624 70.551 
354 78.233 10.654 61.098 27.437 16.724 30.526 
355 50.396 39.038 36.352 12.865 12.090 12.091 
356 11.599 35.584 23.134 3.7231 5.6033 4.7734 
357 97.552 11.466 29.662 39.580 23.908 8.9299 
358 57.650 32.427 94.823 31.118 22.773 92.482 
359 71.626 49.244 36.901 25.528 23.248 15.457 
360 50.153 90.144 12.270 34.237 52.139 15.272 
361 53.934 11.689 55.005 13.394 8.3597 22.723 
362 7.4118 9.4183 47.678 3.4834 2.2773 15.315 
363 10.712 94.234 59.843 35.544 55.490 43.211 
364 72.231 10.938 11.894 16.892 10.475 3.6379 
365 70.940 12.164 51.030 20.595 12.687 20.384 
366 91.951 5.8106 9.7196 30.192 18.194 4.4239 
367 51.049 11.374 8.7945 7.5380 4.8951 2.1449 
368 27.609 61.086 52.291 16.234 22.038 26.701 
369 9.7081 53.437 47.773 10.503 14.684 20.587 
370 85.293 26.163 27.751 27.987 18.521 8.8342 
371 72.376 64.349 89.933 46.002 42.878 87.072 
372 10.792 48.511 11.317 6.2293 10.634 4.4396 
373 59.325 73.365 64.650 34.531 40.377 44.855 
374 17.667 67.886 30.197 14.791 24.333 13.209 
375 8.9935 9.1501 85.085 12.678 8.1528 62.109 
376 60.329 49.942 69.694 26.299 23.802 45.764 
377 31.775 24.070 12.029 3.8490 3.7336 2.1857 
378 76.869 65.445 59.597 39.135 38.928 38.244 
379 22.684 13.227 87.727 15.217 9.9778 69.234 
380 91.556 42.294 72.078 44.193 32.135 49.327 
381 87.363 51.597 41.782 37.315 31.358 19.850 
382 27.875 87.794 65.118 33.686 49.309 47.696 
383 27.422 13.680 68.371 9.3868 6.1110 36.565 
384 96.292 42.778 31.485 41.692 30.708 12.838 
385 72.462 56.487 11.794 25.829 26.315 8.7321 
386 71.593 64.746 25.525 30.001 32.830 13.362 
387 5.6131 56.286 67.136 15.164 18.512 40.980 
388 71.558 87.620 52.027 47.005 58.043 36.096 
389 90.270 75.795 72.531 57.723 56.551 58.291 
390 27.044 26.829 37.522 5.1241 4.8513 10.482 
391 24.550 89.044 90.065 42.874 56.557 91.622 
392 88.255 74.718 58.164 51.168 51.640 39.311 
393 9.7188 89.570 77.730 36.440 51.978 66.527 
394 73.866 26.606 65.757 27.177 18.163 37.406 
395 30.220 88.501 26.771 28.845 47.348 17.381 
396 67.529 74.872 15.861 31.764 39.722 13.114 
397 92.031 50.888 91.212 54.893 42.388 87.827 
398 30.865 40.058 4.4071 6.2498 8.4196 3.2951 
399 55.741 51.218 42.928 19.205 20.126 18.418 
400 24.643 38.156 91.064 20.687 17.168 81.759 
401 33.622 64.721 14.153 15.037 23.355 8.6241 
402 98.826 42.874 7.8003 44.456 32.672 7.5367 
403 87.761 4.9683 28.288 28.445 17.125 8.0926 
404 28.484 12.592 51.791 5.9783 3.9518 19.019 
405 26.754 77.251 89.682 35.484 43.533 87.747 
406 41.658 47.912 43.126 13.358 15.211 17.312 
407 64.034 8.5455 74.198 22.204 13.593 45.011 
408 71.588 88.728 71.948 53.115 62.992 60.427 
409 27.605 11.650 23.584 2.7224 1.9952 3.4861 
410 78.213 12.470 87.123 35.921 22.296 70.753 
411 59.010 97.462 67.786 53.634 71.390 56.888 
412 95.040 97.249 12.350 67.605 79.365 19.153 
413 10.127 22.396 30.573 2.4633 2.5664 6.3853 
414 38.667 52.530 69.935 19.487 20.584 45.703 
415 72.247 19.263 40.709 20.252 13.002 13.818 
416 64.511 46.894 54.079 23.832 21.288 27.392 
417 98.035 31.421 17.366 41.714 27.874 7.0609 
418 37.024 51.130 25.476 11.235 15.046 8.4894 
419 94.918 59.299 74.703 53.583 44.613 57.361 
420 98.711 15.108 2.0927 39.710 24.222 4.5382 
421 42.131 74.264 46.059 24.824 34.908 25.319 
422 92.222 30.820 54.837 38.221 25.517 27.083 
423 13.252 4.3600 4.8836 0.62455 0.53029 0.68885 
424 24.332 44.892 62.291 12.468 13.426 33.946 
425 61.575 76.764 91.467 47.407 51.135 94.222 
426 49.713 40.147 20.626 11.516 11.701 6.0821 
427 85.006 26.212 6.4226 25.930 17.374 4.8206 
428 90.665 90.980 74.947 68.583 73.970 66.007 
429 50.518 43.027 87.834 26.827 22.216 75.870 
430 9.6052 34.480 75.643 12.226 10.537 49.333 
431 56.539 93.924 3.1080 38.985 58.277 15.701 
432 35.413 30.329 25.775 6.0569 6.1255 5.5352 
433 32.421 24.014 88.800 18.395 12.974 73.958 
434 1.0403 47.063 89.044 19.850 18.493 77.362 
435 73.689 32.366 87.507 35.677 24.841 75.292 
436 54.240 88.856 74.445 45.019 57.926 62.786 
437 77.343 88.607 34.079 48.348 59.826 23.649 
438 94.784 87.183 2.5068 57.837 64.728 16.746 
439 74.755 51.256 62.409 32.797 28.440 38.008 
440 36.979 97.669 62.041 44.952 66.338 48.808 
441 47.364 60.978 52.999 21.420 25.521 28.436 
442 0.82935 28.995 41.447 4.0522 4.3751 12.635 
443 69.134 60.918 76.287 36.735 34.951 58.686 
444 8.6306 75.714 41.340 18.971 30.838 20.832 
445 96.839 93.359 57.683 72.761 78.329 44.032 
446 13.926 58.661 76.980 19.780 22.913 57.301 
447 58.849 59.172 27.735 21.382 24.804 12.183 
448 8.0719 89.226 47.674 28.802 46.830 29.467 
449 38.854 75.226 7.9146 21.352 33.442 10.724 
450 91.696 92.818 91.951 77.578 81.598 101.17 
451 42.109 7.3879 28.773 5.8855 3.7318 5.6499 
452 20.592 31.993 12.398 3.3463 4.7138 2.6152 
453 2.7896 38.369 4.7052 3.4738 5.7800 2.4732 
454 29.403 61.212 92.821 29.541 31.000 91.063 
455 26.200 65.354 70.180 22.129 27.994 48.308 
456 37.063 26.889 75.352 14.455 10.583 48.141 
457 42.946 94.596 36.975 37.779 58.263 24.196 
458 42.862 28.868 39.636 9.0017 7.5394 12.411 
459 86.841 73.635 29.979 45.126 47.426 18.344 
460 93.600 4.5648 46.876 35.531 21.317 17.848 
461 53.111 31.931 4.5861 10.062 8.8852 3.2677 
462 54.185 37.170 51.790 16.088 13.643 22.981 
463 44.992 14.082 45.546 8.9251 5.8197 14.946 
464 7.8568 24.463 59.691 6.5617 5.2783 27.304 
465 4.2812 5.8810 11.317 0.48660 0.47209 1.0350 
466 90.253 28.592 74.393 41.283 27.024 50.262 
467 21.348 36.338 31.926 5.3111 6.8314 8.3376 
468 58.319 28.064 19.225 12.208 9.3908 4.8232 
469 76.840 39.049 24.042 24.201 19.007 8.3200 
470 9.9376 56.465 28.444 9.3170 15.259 9.6644 
471 59.625 73.788 40.214 30.038 37.931 21.827 
472 13.287 20.867 46.185 4.0972 3.4079 15.171 
473 25.181 38.098 45.851 7.7857 8.6877 17.040 
474 2.9292 40.324 33.412 5.0386 7.2667 9.2097 
475 61.772 97.694 51.159 50.902 69.866 37.477 
476 91.980 59.019 23.529 41.573 37.282 12.731 
477 78.184 50.055 88.939 43.899 35.153 81.562 
478 69.480 18.533 94.490 34.536 22.454 89.178 
479 63.510 4.3786 96.082 31.902 20.432 92.648 
480 73.886 84.614 92.226 59.684 64.216 99.174 
481 10.679 50.408 96.954 26.290 24.953 102.47 
482 57.798 73.405 7.3858 26.047 35.318 11.181 
483 53.794 56.386 89.085 32.919 30.951 82.049 
484 74.927 12.022 29.172 19.971 12.341 7.6939 
485 36.599 44.450 96.654 28.200 24.461 100.70 
486 25.345 93.568 43.359 33.550 54.208 27.396 
487 75.658 65.852 45.999 35.884 37.160 25.372 
488 84.585 88.046 14.395 50.717 60.829 17.270 
489 79.094 74.292 7.1810 38.021 43.482 12.896 
490 73.690 33.257 38.221 22.889 16.926 13.926 
491 10.631 4.8637 95.808 18.424 12.364 90.546 
492 91.966 70.244 39.897 48.446 47.166 23.016 
493 39.863 25.012 51.697 9.5279 7.2772 20.635 
494 59.785 26.209 65.737 19.680 13.609 36.415 
495 98.020 68.675 96.965 74.017 64.072 111.19 
496 11.707 46.112 55.714 10.002 12.087 26.491 
497 8.6178 76.611 23.201 17.793 30.789 12.258 
498 10.702 21.331 71.677 9.1737 6.5624 41.495 
499 21.077 58.544 8.0019 10.282 17.181 6.2225 
