.icc/lappy.ti1
CTI1   

DESCRIPTOR "Argyll Calibration Target chart information 1"
ORIGINATOR "Argyll targen"
CREATED "Sun Jan  2 16:10:09 2011"
KEYWORD "APPROX_WHITE_POINT"
APPROX_WHITE_POINT "95.106486 100.000000 108.844025"
KEYWORD "COLOR_REP"
COLOR_REP "RGB"
KEYWORD "WHITE_COLOR_PATCHES"
WHITE_COLOR_PATCHES "4"
KEYWORD "ERROR_OPTIMISED_PATCHES"
ERROR_OPTIMISED_PATCHES "496"

NUMBER_OF_FIELDS 7
BEGIN_DATA_FORMAT
SAMPLE_ID RGB_R RGB_G RGB_B XYZ_X XYZ_Y XYZ_Z 
END_DATA_FORMAT

NUMBER_OF_SETS 500
BEGIN_DATA
1 100.00 100.00 100.00 95.106 100.00 108.84 
2 100.00 100.00 100.00 95.106 100.00 108.84 
3 100.00 100.00 100.00 95.106 100.00 108.84 
4 100.00 100.00 100.00 95.106 100.00 108.84 
5 100.00 100.00 100.00 95.106 100.00 108.84 
6 0.0000 0.0000 0.0000 1.0000 1.0000 1.0000 
7 0.0000 100.00 0.0000 36.405 71.801 12.802 
8 0.0000 0.0000 100.00 18.871 8.1473 95.129 
9 100.00 0.0000 0.0000 41.830 22.052 2.9132 
10 100.00 100.00 0.0000 77.235 92.853 14.715 
11 0.0000 100.00 100.00 54.276 78.948 106.93 
12 100.00 0.0000 100.00 59.701 29.199 97.042 
13 0.0000 60.053 100.00 30.171 30.745 98.896 
14 0.0000 49.773 0.0000 8.5041 16.006 3.5014 
15 0.0000 0.0000 41.603 3.5803 2.0319 14.590 
16 100.00 0.0000 58.069 47.128 24.171 30.820 
17 100.00 57.951 100.00 70.151 50.097 100.53 
18 100.00 51.467 0.0000 49.898 38.186 5.6026 
19 49.592 0.0000 0.0000 9.5858 5.4269 1.4023 
20 0.0000 100.00 46.668 39.702 73.119 30.167 
21 100.00 100.00 47.734 80.696 94.237 32.944 
22 46.227 100.00 0.0000 43.786 75.606 13.148 
23 51.411 100.00 100.00 63.559 83.734 107.37 
24 50.736 0.0000 100.00 27.891 12.798 95.552 
25 0.0000 39.174 46.696 8.8029 11.323 19.888 
26 100.00 55.855 48.994 55.132 42.795 25.409 
27 48.133 45.474 0.0000 15.229 17.507 3.4369 
28 45.213 0.0000 44.252 10.981 5.8057 16.827 
29 55.182 51.097 100.00 37.641 29.613 98.284 
30 54.732 100.00 59.737 52.679 79.539 42.997 
31 0.0000 29.197 100.00 21.326 13.056 95.947 
32 0.0000 0.0000 78.587 11.368 5.1465 55.609 
33 100.00 27.878 0.0000 44.067 26.525 3.6587 
34 0.0000 100.00 64.553 43.094 74.476 48.034 
35 100.00 21.170 100.00 61.007 31.810 97.477 
36 100.00 0.0000 20.973 42.477 22.311 6.3224 
37 0.0000 24.213 0.0000 2.6917 4.3830 1.5639 
38 67.984 100.00 0.0000 53.546 80.638 13.605 
39 75.378 0.0000 0.0000 22.576 12.124 2.0110 
40 100.00 100.00 69.289 85.062 95.983 55.936 
41 24.692 100.00 100.00 56.304 79.993 107.03 
42 0.0000 74.871 0.0000 19.429 37.853 7.1431 
43 75.301 0.0000 100.00 40.398 19.247 96.138 
44 24.920 0.0000 0.0000 3.0642 2.0643 1.0967 
45 100.00 100.00 24.249 78.092 93.195 19.226 
46 50.426 48.723 57.339 22.221 21.982 30.949 
47 100.00 0.0000 79.262 52.399 26.279 58.581 
48 71.951 75.024 100.00 56.830 55.195 102.21 
49 100.00 81.147 100.00 81.775 73.340 104.40 
50 24.449 0.0000 100.00 20.859 9.1725 95.222 
51 100.00 75.693 0.0000 60.715 59.816 9.2082 
52 32.754 100.00 33.654 41.639 74.307 21.691 
53 0.0000 80.300 100.00 40.430 51.259 102.32 
54 76.820 100.00 100.00 76.787 90.554 107.99 
55 0.0000 0.0000 20.830 1.6389 1.2555 4.3652 
56 0.0000 100.00 23.211 37.192 72.115 16.944 
57 100.00 31.852 64.279 51.386 30.561 38.792 
58 22.835 100.00 0.0000 38.146 72.698 12.883 
59 0.0000 67.116 69.159 23.240 33.005 46.866 
60 31.948 71.670 100.00 38.987 43.327 100.86 
61 0.0000 31.434 66.543 11.006 9.5634 39.632 
62 69.352 70.402 0.0000 34.981 42.362 7.1944 
63 0.0000 69.135 32.382 17.958 32.464 14.199 
64 30.669 68.431 0.0000 19.209 32.771 6.1737 
65 69.192 0.0000 69.184 26.625 13.310 42.918 
66 35.157 0.0000 72.529 13.806 6.6005 46.833 
67 100.00 66.968 66.357 63.316 53.642 45.155 
68 73.619 27.768 0.0000 23.685 15.990 2.6986 
69 35.353 100.00 71.308 48.937 77.297 56.942 
70 31.261 31.479 100.00 24.983 15.543 96.235 
71 71.134 0.0000 29.999 21.266 11.298 8.7817 
72 100.00 23.883 29.875 44.775 25.865 10.298 
73 70.048 100.00 31.962 56.214 81.841 21.504 
74 32.350 0.0000 29.387 5.7429 3.3003 7.7750 
75 100.00 74.668 28.865 61.358 59.166 15.396 
76 75.895 28.468 100.00 43.112 24.108 96.933 
77 26.023 28.616 0.0000 5.6055 6.8727 1.8910 
78 0.0000 30.372 30.498 5.0121 6.8579 9.0145 
79 69.516 100.00 70.928 62.661 84.384 57.069 
80 53.978 73.676 27.720 30.213 42.318 13.288 
81 26.992 73.446 55.169 25.809 39.445 31.946 
82 48.747 27.774 28.294 12.656 10.170 8.2530 
83 69.055 49.919 23.579 27.109 25.576 8.6197 
84 26.533 54.191 34.303 14.084 20.941 13.190 
85 48.823 76.927 73.088 37.696 47.961 54.343 
86 79.515 50.557 75.872 42.665 32.894 55.200 
87 25.727 25.519 50.660 9.0090 7.4581 22.455 
88 52.863 21.163 0.0000 12.165 8.6927 1.8969 
89 69.168 27.093 51.906 25.072 16.067 24.386 
90 100.00 43.516 19.207 48.003 33.518 7.6765 
91 73.858 76.269 53.804 45.308 51.833 31.991 
92 25.950 53.095 75.406 21.320 23.195 53.765 
93 0.0000 21.519 49.970 6.1669 5.2209 21.570 
94 77.197 54.716 100.00 50.846 38.312 99.268 
95 0.0000 48.953 21.354 8.9095 15.745 6.9415 
96 49.468 21.625 73.067 19.708 11.644 48.251 
97 23.314 49.873 100.00 28.220 24.153 97.726 
98 83.583 0.0000 41.583 30.785 16.059 15.851 
99 78.682 48.907 0.0000 31.977 27.695 4.5213 
100 19.848 100.00 53.406 42.151 74.252 36.108 
101 0.0000 50.889 79.804 19.604 21.035 60.149 
102 0.0000 79.418 50.698 25.973 44.632 28.771 
103 100.00 50.264 80.268 60.368 41.728 62.735 
104 48.847 78.462 0.0000 29.777 46.213 8.2118 
105 49.654 77.643 100.00 47.471 52.563 102.20 
106 22.509 0.0000 45.147 5.7642 3.1012 17.255 
107 73.138 100.00 49.987 60.398 83.729 33.883 
108 57.581 0.0000 82.606 24.481 11.765 62.642 
109 58.228 18.491 100.00 32.062 16.451 96.037 
110 49.189 100.00 23.293 45.633 76.467 17.368 
111 20.665 47.333 0.0000 9.1714 15.207 3.3119 
112 100.00 75.485 47.767 64.065 60.970 27.426 
113 100.00 18.672 46.806 46.179 25.441 20.733 
114 48.252 0.0000 19.163 9.6393 5.3913 4.2555 
115 23.253 86.704 77.812 38.568 57.228 63.035 
116 0.0000 82.911 84.609 36.408 52.224 73.193 
117 52.226 100.00 77.988 56.201 80.829 66.932 
118 0.0000 0.0000 59.531 6.5955 3.2378 30.472 
119 0.0000 45.113 100.00 24.945 20.294 97.154 
120 100.00 83.381 82.905 76.986 73.650 72.317 
121 70.056 23.951 27.313 22.064 14.193 8.1179 
122 76.508 52.979 49.950 35.715 31.208 25.013 
123 84.351 100.00 17.393 64.635 86.303 16.509 
124 84.730 82.969 0.0000 52.259 61.866 10.049 
125 17.145 85.528 100.00 44.735 58.359 103.46 
126 22.503 24.214 24.653 5.2688 5.6095 6.3026 
127 27.391 74.772 22.482 22.604 39.323 11.136 
128 0.0000 100.00 83.230 48.201 76.518 74.930 
129 76.791 18.814 76.599 34.327 18.603 53.964 
130 0.0000 16.842 83.367 13.692 7.4414 63.642 
131 78.126 72.623 79.630 52.273 51.752 64.084 
132 0.0000 14.740 13.264 1.9566 2.4596 2.7168 
133 100.00 17.475 83.366 54.582 28.612 65.575 
134 100.00 40.491 100.00 64.528 38.852 98.651 
135 23.402 23.908 78.087 14.696 9.3290 55.468 
136 17.486 15.629 100.00 20.671 10.183 95.427 
137 75.704 80.281 24.316 45.194 55.666 13.738 
138 12.805 13.067 0.0000 2.1574 2.4091 1.2110 
139 87.474 14.140 0.0000 31.773 17.796 2.6214 
140 0.0000 84.435 14.803 25.480 49.405 10.849 
141 100.00 0.0000 36.864 43.831 22.852 13.450 
142 17.990 0.0000 82.474 13.666 6.1939 61.918 
143 82.522 0.0000 18.048 27.925 14.826 4.8127 
144 49.763 51.714 77.182 27.759 25.744 56.568 
145 100.00 18.824 14.291 43.199 24.274 4.9580 
146 81.710 0.0000 84.079 38.923 19.157 65.775 
147 56.645 71.681 51.976 33.347 42.014 29.024 
148 15.970 0.0000 13.636 2.1915 1.5800 2.6063 
149 82.015 14.343 100.00 45.585 22.874 96.565 
150 23.919 49.191 49.759 14.006 18.126 23.466 
151 33.242 87.165 0.0000 30.622 54.761 9.8174 
152 50.427 49.968 30.422 18.816 21.261 11.032 
153 100.00 86.578 13.031 67.646 73.237 12.875 
154 58.688 64.612 100.00 44.540 41.090 100.14 
155 16.478 100.00 16.955 37.787 72.463 15.143 
156 100.00 46.829 62.509 54.641 37.703 37.922 
157 83.253 100.00 84.112 75.450 90.535 77.685 
158 0.0000 61.156 51.819 16.895 26.174 26.689 
159 100.00 67.451 85.699 69.035 56.299 74.141 
160 0.0000 64.069 14.032 14.345 27.188 6.9878 
161 0.0000 46.214 62.558 13.637 16.287 36.004 
162 86.393 64.323 0.0000 43.461 42.406 6.7563 
163 84.604 0.0000 63.010 35.302 17.953 35.708 
164 0.0000 13.950 100.00 19.483 9.3710 95.333 
165 38.608 14.575 100.00 24.566 12.063 95.585 
166 0.0000 87.367 34.091 28.770 53.811 18.646 
167 100.00 64.307 13.400 55.259 48.445 8.8120 
168 100.00 37.613 42.529 48.667 31.399 18.532 
169 51.912 0.0000 64.411 17.136 8.5498 36.506 
170 54.446 24.224 48.360 16.768 11.231 20.805 
171 14.946 65.973 100.00 33.573 36.366 99.802 
172 100.00 14.786 65.817 49.490 26.198 39.916 
173 37.981 100.00 89.224 55.069 79.828 85.711 
174 35.265 13.427 0.0000 5.7405 4.2949 1.3863 
175 12.553 63.241 0.0000 14.254 26.629 5.2491 
176 0.0000 14.744 33.260 3.2896 2.9932 9.7368 
177 64.978 55.357 0.0000 25.960 27.900 4.8779 
178 38.462 100.00 51.889 45.546 76.034 34.869 
179 37.299 38.943 15.669 10.509 12.458 4.6951 
180 63.053 0.0000 12.639 15.770 8.5853 3.0558 
181 100.00 84.573 62.129 72.204 72.957 43.366 
182 63.779 100.00 15.791 51.669 79.626 15.520 
183 86.951 36.779 16.606 35.105 24.390 5.9201 
184 45.325 56.781 14.844 18.413 24.770 6.4746 
185 63.635 89.451 100.00 61.173 70.765 104.99 
186 87.626 68.886 100.00 64.442 54.359 101.65 
187 65.321 61.128 64.219 35.051 35.230 40.482 
188 37.355 88.819 100.00 50.628 64.679 104.37 
189 61.124 36.786 81.974 29.893 20.435 62.989 
190 13.598 100.00 35.725 38.954 72.898 22.703 
191 61.195 39.085 13.106 19.341 17.074 4.5925 
192 82.145 62.663 35.341 41.407 40.040 16.013 
193 37.966 0.0000 88.310 19.343 8.8982 72.237 
194 13.602 0.0000 32.065 3.1748 1.9480 8.9276 
195 14.545 84.290 0.0000 25.803 49.473 9.0503 
196 0.0000 34.765 13.003 4.7823 8.1252 3.6126 
197 35.373 100.00 13.700 40.898 74.083 14.575 
198 85.613 38.291 36.661 35.988 25.180 14.192 
199 37.460 39.186 83.184 22.012 17.157 64.773 
200 86.021 100.00 38.836 67.665 87.660 25.915 
201 37.525 62.968 64.061 24.865 31.161 40.045 
202 84.566 100.00 62.025 70.463 88.652 46.368 
203 16.586 13.723 58.996 8.0378 4.8771 30.137 
204 41.087 81.855 35.398 31.088 49.707 18.455 
205 19.927 68.745 82.125 29.024 36.737 66.428 
206 14.672 43.758 86.628 20.370 17.941 70.926 
207 17.816 100.00 86.503 50.362 77.509 80.623 
208 37.391 40.489 64.566 17.227 15.755 38.078 
209 49.752 62.469 0.0000 21.972 30.106 5.5137 
210 62.869 40.902 41.936 22.971 19.343 17.141 
211 0.0000 66.856 86.037 28.033 34.723 72.723 
212 39.766 56.324 100.00 34.048 30.544 98.653 
213 63.222 85.290 0.0000 40.287 57.901 9.9145 
214 19.998 32.660 64.166 12.036 10.504 36.858 
215 45.381 87.882 62.482 40.737 59.976 42.923 
216 65.082 12.323 0.0000 17.057 10.015 1.8946 
217 85.853 87.783 100.00 74.122 75.742 105.27 
218 61.534 85.614 62.028 45.778 60.340 42.206 
219 63.772 87.006 37.493 43.776 61.145 21.222 
220 14.836 36.267 100.00 23.487 16.212 96.443 
221 34.319 41.260 33.278 11.580 13.723 11.381 
222 85.846 38.083 85.919 46.809 29.450 70.510 
223 13.653 63.408 42.121 17.067 27.883 19.230 
224 80.771 41.277 63.681 37.710 26.638 38.045 
225 64.563 38.104 62.900 26.852 19.903 36.402 
226 65.603 100.00 88.763 65.882 85.421 85.379 
227 100.00 34.277 83.826 57.224 33.659 67.184 
228 21.687 44.184 19.370 8.9437 13.654 5.9453 
229 59.969 13.258 19.406 15.111 9.0437 4.7405 
230 85.417 13.319 37.940 32.261 17.711 13.718 
231 40.409 14.641 59.767 12.853 7.4458 31.211 
232 65.275 60.341 39.290 30.369 32.827 17.584 
233 35.595 17.388 34.997 7.9485 5.7170 10.957 
234 18.205 59.395 61.475 19.169 26.043 36.361 
235 0.0000 15.006 65.081 8.5054 5.1130 37.105 
236 37.220 60.010 43.721 19.813 27.113 20.083 
237 20.521 82.230 39.028 27.415 48.110 20.522 
238 62.966 9.0041 39.502 18.080 9.9882 13.960 
239 34.921 64.201 80.028 28.976 33.607 62.438 
240 0.0000 84.431 67.488 32.516 52.215 47.925 
241 13.118 33.067 44.117 7.7221 8.8230 17.481 
242 66.045 9.2803 85.626 29.967 14.951 68.090 
243 41.426 15.055 18.574 8.0560 5.6153 4.2206 
244 41.616 83.449 19.512 30.971 51.275 12.087 
245 89.720 61.584 53.840 49.360 43.142 30.134 
246 64.211 81.147 81.330 49.376 57.407 68.048 
247 60.908 62.656 14.762 27.191 32.878 7.5603 
248 64.369 14.357 63.835 23.355 12.726 36.297 
249 100.00 88.608 38.129 70.890 76.729 23.192 
250 17.295 0.0000 60.486 7.8274 3.8500 31.570 
251 85.458 22.221 61.990 37.151 21.058 35.036 
252 88.697 37.435 0.0000 36.200 25.223 3.8219 
253 34.765 0.0000 11.771 5.2780 3.1789 2.4127 
254 11.839 34.314 0.0000 4.9503 8.1046 2.1633 
255 19.584 59.798 20.565 14.118 24.306 8.0769 
256 60.255 69.588 81.075 40.902 43.520 65.402 
257 17.272 100.00 70.415 45.548 75.576 55.577 
258 82.497 64.325 16.798 40.995 41.086 8.8789 
259 35.366 50.505 0.0000 12.937 18.649 3.7780 
260 19.641 12.246 37.546 4.8761 3.4868 12.173 
261 35.217 11.877 80.864 16.677 8.4976 59.577 
262 84.885 59.225 66.534 47.284 40.304 43.644 
263 81.804 86.945 65.158 59.536 68.660 46.777 
264 85.587 81.090 41.795 54.343 60.911 23.415 
265 0.0000 34.638 84.300 16.621 12.818 66.102 
266 46.884 37.525 100.00 30.592 20.296 96.857 
267 15.019 46.458 35.806 10.154 15.103 13.110 
268 54.009 100.00 41.230 49.268 78.140 26.619 
269 41.405 78.725 85.935 40.134 50.316 74.918 
270 85.674 39.813 100.00 52.294 32.293 98.030 
271 38.066 65.452 27.989 20.690 31.300 11.777 
272 61.733 86.158 19.824 40.692 58.890 13.134 
273 41.085 32.439 0.0000 9.7822 10.042 2.2828 
274 16.422 82.599 58.261 30.249 49.556 36.811 
275 0.0000 51.723 36.684 11.135 18.100 14.148 
276 83.538 17.404 16.730 29.505 16.993 4.8169 
277 85.550 62.260 84.655 54.161 45.150 70.972 
278 65.154 51.010 84.774 36.807 29.785 69.123 
279 23.240 13.816 9.4890 3.5682 3.1982 2.1555 
280 100.00 100.00 85.776 89.860 97.902 81.208 
281 85.809 26.802 43.415 34.760 21.148 17.921 
282 83.528 100.00 0.0000 63.572 85.808 14.075 
283 36.458 37.552 50.719 13.531 13.118 23.362 
284 12.110 22.116 14.195 3.2933 4.2519 3.1754 
285 32.793 77.393 71.515 32.831 45.897 52.011 
286 52.537 87.329 89.569 50.693 63.664 83.456 
287 53.354 85.491 49.568 39.638 57.329 29.519 
288 65.861 0.0000 49.875 20.781 10.759 21.788 
289 54.418 0.0000 32.518 13.046 7.0324 9.6183 
290 87.646 51.467 11.995 39.588 32.842 6.3698 
291 100.00 57.305 32.625 53.580 43.063 14.493 
292 86.034 12.893 52.343 34.798 18.732 24.789 
293 15.963 73.054 10.531 19.533 36.423 7.8798 
294 13.913 11.176 21.838 2.8245 2.4876 4.8566 
295 16.187 57.194 88.987 25.786 27.262 76.674 
296 47.051 67.144 92.004 37.916 39.782 84.085 
297 14.410 89.292 25.999 30.113 56.540 15.337 
298 65.811 40.244 100.00 39.586 25.900 97.465 
299 36.199 0.0000 56.384 10.368 5.2554 27.370 
300 63.699 39.406 27.956 21.533 18.220 9.1941 
301 88.574 10.001 74.801 41.648 21.411 51.464 
302 12.898 73.848 71.272 27.822 40.389 50.879 
303 71.112 74.440 35.001 39.933 47.866 17.411 
304 79.087 88.403 81.869 63.166 71.472 70.916 
305 91.076 7.3319 92.304 49.152 24.439 81.105 
306 31.327 27.106 62.714 12.655 9.4217 34.911 
307 14.255 8.1781 71.964 10.510 5.3087 45.971 
308 82.676 50.526 28.101 36.446 30.648 10.870 
309 72.071 89.719 11.973 48.440 66.516 12.400 
310 46.768 26.748 88.078 24.028 14.379 72.629 
311 35.495 51.863 85.087 25.824 24.539 69.227 
312 90.621 44.693 53.616 44.059 31.523 27.958 
313 24.304 84.895 12.537 27.657 50.979 10.594 
314 88.375 24.768 91.212 48.125 26.245 79.431 
315 74.099 41.168 11.116 26.977 21.789 4.7543 
316 88.320 76.642 88.728 64.855 61.167 80.688 
317 86.457 90.636 50.617 62.616 74.355 32.507 
318 9.9319 75.593 89.443 34.110 44.411 80.380 
319 90.392 89.063 27.500 61.793 72.625 17.383 
320 44.802 26.151 13.624 10.167 8.6141 3.5417 
321 91.253 75.251 14.458 53.140 55.508 10.498 
322 24.616 40.121 76.856 17.612 15.451 54.623 
323 72.765 75.100 67.919 46.982 51.380 47.552 
324 63.263 61.155 51.850 31.515 33.711 27.402 
325 48.714 63.358 36.265 23.911 31.461 15.809 
326 11.487 45.275 71.062 15.910 16.814 46.671 
327 49.243 39.201 72.126 22.522 17.798 47.974 
328 12.632 25.343 88.895 17.131 10.480 73.721 
329 54.310 49.541 12.083 19.129 21.344 5.2431 
330 9.3798 91.257 92.472 45.100 64.701 89.414 
331 51.345 59.708 66.888 28.651 30.980 43.270 
332 28.016 71.595 39.999 22.656 36.642 19.188 
333 61.960 38.948 0.0000 19.407 17.091 3.1366 
334 53.889 14.046 31.151 13.314 8.1046 9.1309 
335 35.518 51.933 57.402 18.623 21.699 31.149 
336 69.746 24.116 13.234 21.105 13.824 3.8964 
337 60.785 25.521 36.496 18.219 12.436 12.571 
338 49.301 30.492 61.336 18.133 13.120 33.763 
339 47.698 69.430 16.033 24.864 36.374 8.6385 
340 42.167 74.265 59.804 30.815 42.578 37.086 
341 61.632 22.455 80.954 27.341 15.469 60.506 
342 45.768 8.7212 71.752 16.972 8.6852 45.990 
343 37.036 90.279 79.951 44.466 63.831 67.334 
344 34.300 86.358 51.059 34.332 55.412 30.732 
345 31.986 50.547 12.807 12.434 18.379 5.1527 
346 52.201 87.564 29.267 38.041 58.842 16.741 
347 73.235 37.384 75.162 34.693 23.344 52.730 
348 34.708 6.5128 42.194 7.8833 4.5272 15.256 
349 7.8395 92.198 7.9224 30.856 60.076 11.496 
350 9.8288 34.802 56.367 9.8785 10.222 28.337 
351 10.318 70.129 57.366 22.515 35.133 33.500 
352 77.707 37.421 50.911 32.164 22.678 24.396 
353 49.121 11.227 87.939 23.191 11.529 71.873 
354 78.233 10.654 61.098 30.766 16.244 33.435 
355 50.396 39.038 36.352 16.302 15.298 13.140 
356 11.599 35.584 23.134 5.9813 8.9423 6.3673 
357 97.552 11.466 29.662 41.314 22.292 9.6929 
358 57.650 32.427 94.823 31.792 19.555 85.993 
359 71.626 49.244 36.901 29.589 26.391 14.905 
360 50.153 90.144 12.270 38.025 61.586 12.049 
361 53.934 11.689 55.005 16.461 9.1025 26.421 
362 7.4118 9.4183 47.678 5.0399 3.1641 19.303 
363 10.712 94.234 59.843 38.053 65.365 41.146 
364 72.231 10.938 11.894 21.260 12.025 3.2995 
365 70.940 12.164 51.030 24.326 13.285 23.101 
366 91.951 5.8106 9.7196 35.087 18.803 3.5399 
367 51.049 11.374 8.7945 10.724 6.6423 2.3502 
368 27.609 61.086 52.291 19.477 27.451 27.231 
369 9.7081 53.437 47.773 13.612 20.093 22.197 
370 85.293 26.163 27.751 32.567 20.071 8.8830 
371 72.376 64.349 89.933 47.911 43.093 80.304 
372 10.792 48.511 11.317 8.7784 15.522 4.5355 
373 59.325 73.365 64.650 38.009 45.443 42.815 
374 17.667 67.886 30.197 18.216 31.712 12.975 
375 8.9935 9.1501 85.085 14.054 6.7570 66.411 
376 60.329 49.942 69.694 29.651 26.074 45.897 
377 31.775 24.070 12.029 6.2748 6.1738 2.9824 
378 76.869 65.445 59.597 42.812 42.184 36.154 
379 22.684 13.227 87.727 16.559 8.3152 71.222 
380 91.556 42.294 72.078 48.260 32.235 49.339 
381 87.363 51.597 41.782 41.776 33.763 18.828 
382 27.875 87.794 65.118 36.756 57.766 45.825 
383 27.422 13.680 68.371 11.685 6.5085 41.332 
384 96.292 42.778 31.485 45.337 31.742 12.170 
385 72.462 56.487 11.794 30.869 31.038 6.4462 
386 71.593 64.746 25.525 34.519 37.971 11.337 
387 5.6131 56.286 67.136 18.285 23.618 42.708 
388 71.558 87.620 52.027 50.619 65.045 32.605 
389 90.270 75.795 72.531 60.975 59.032 54.472 
390 27.044 26.829 37.522 7.5746 7.2241 12.738 
391 24.550 89.044 90.065 44.313 62.090 84.405 
392 88.255 74.718 58.164 55.421 55.670 36.563 
393 9.7188 89.570 77.730 39.086 60.397 63.494 
394 73.866 26.606 65.757 30.627 18.493 39.349 
395 30.220 88.501 26.771 31.916 56.654 15.573 
396 67.529 74.872 15.861 36.704 46.716 9.9717 
397 92.031 50.888 91.212 57.193 39.979 81.604 
398 30.865 40.058 4.4071 8.9479 12.094 3.0436 
399 55.741 51.218 42.928 22.810 23.774 18.706 
400 24.643 38.156 91.064 21.730 16.339 78.630 
401 33.622 64.721 14.153 18.421 29.726 7.2875 
402 98.826 42.874 7.8003 46.322 32.441 5.3323 
403 87.761 4.9683 28.288 32.672 17.401 8.5919 
404 28.484 12.592 51.791 8.3355 5.0680 23.041 
405 26.754 77.251 89.682 37.101 47.334 81.226 
406 41.658 47.912 43.126 16.609 18.984 18.250 
407 64.034 8.5455 74.198 25.409 12.946 49.813 
408 71.588 88.728 71.948 55.734 68.301 55.727 
409 27.605 11.650 23.584 4.7925 3.5330 5.5419 
410 78.213 12.470 87.123 38.018 19.325 71.139 
411 59.010 97.462 67.786 54.389 77.228 51.982 
412 95.040 97.249 12.350 70.855 86.305 15.105 
413 10.127 22.396 30.573 4.2315 4.6667 8.6681 
414 38.667 52.530 69.935 22.475 23.665 46.130 
415 72.247 19.263 40.709 24.182 14.289 15.263 
416 64.511 46.894 54.079 27.396 23.880 27.801 
417 98.035 31.421 17.366 43.333 27.003 6.1774 
418 37.024 51.130 25.476 14.510 19.661 8.8376 
419 94.918 59.299 74.703 57.515 45.380 55.113 
420 98.711 15.108 2.0927 41.375 22.858 3.2444 
421 42.131 74.264 46.059 28.357 41.593 24.199 
422 92.222 30.820 54.837 42.389 25.865 28.126 
423 13.252 4.3600 4.8836 1.8347 1.6003 1.4309 
424 24.332 44.892 62.291 15.163 16.508 35.659 
425 61.575 76.764 91.467 48.853 52.907 85.021 
426 49.713 40.147 20.626 14.999 15.182 6.2878 
427 85.006 26.212 6.4226 31.335 19.565 3.4862 
428 90.665 90.980 74.947 71.583 78.716 61.162 
429 50.518 43.027 87.834 28.745 21.914 73.396 
430 9.6052 34.480 75.643 14.351 11.902 52.300 
431 56.539 93.924 3.1080 43.168 68.310 11.997 
432 35.413 30.329 25.775 8.8205 8.8551 7.1667 
433 32.421 24.014 88.800 19.819 11.595 73.621 
434 1.0403 47.063 89.044 21.420 19.811 75.568 
435 73.689 32.366 87.507 37.744 22.910 72.530 
436 54.240 88.856 74.445 47.696 64.209 58.891 
437 77.343 88.607 34.079 52.467 67.281 19.992 
438 94.784 87.183 2.5068 63.132 71.538 11.525 
439 74.755 51.256 62.409 36.384 30.393 37.358 
440 36.979 97.669 62.041 45.285 72.926 44.677 
441 47.364 60.978 52.999 24.803 30.115 28.120 
442 0.82935 28.995 41.447 6.0063 6.8772 15.291 
443 69.134 60.918 76.287 40.154 37.373 56.814 
444 8.6306 75.714 41.340 22.770 39.974 20.723 
445 96.839 93.359 57.683 74.466 83.229 40.377 
446 13.926 58.661 76.980 22.335 26.784 56.748 
447 58.849 59.172 27.735 25.521 29.749 11.116 
448 8.0719 89.226 47.674 32.088 57.205 28.307 
449 38.854 75.226 7.9146 24.854 40.926 8.1145 
450 91.696 92.818 91.951 79.203 83.979 90.340 
451 42.109 7.3879 28.773 8.4791 5.0553 7.6952 
452 20.592 31.993 12.398 5.6373 7.7491 3.3847 
453 2.7896 38.369 4.7052 5.4635 9.6899 2.7867 
454 29.403 61.212 92.821 30.747 32.084 84.545 
455 26.200 65.354 70.180 24.950 32.629 48.057 
456 37.063 26.889 75.352 17.139 11.318 51.613 
457 42.946 94.596 36.975 40.527 67.463 22.301 
458 42.862 28.868 39.636 12.009 9.9671 14.362 
459 86.841 73.635 29.979 49.719 52.321 15.192 
460 93.600 4.5648 46.876 39.590 20.699 20.221 
461 53.111 31.931 4.5861 13.970 12.050 2.7847 
462 54.185 37.170 51.790 19.565 16.079 24.574 
463 44.992 14.082 45.546 11.716 7.0862 18.016 
464 7.8568 24.463 59.691 8.6411 6.8505 31.235 
465 4.2812 5.8810 11.317 1.5225 1.4951 2.2101 
466 90.253 28.592 74.393 44.878 26.055 51.600 
467 21.348 36.338 31.926 7.8615 10.074 10.180 
468 58.319 28.064 19.225 16.036 12.053 5.2218 
469 76.840 39.049 24.042 28.838 21.892 7.9820 
470 9.9376 56.465 28.444 12.453 21.421 10.501 
471 59.625 73.788 40.214 34.069 44.247 20.196 
472 13.287 20.867 46.185 6.1434 5.1638 18.436 
473 25.181 38.098 45.851 10.527 11.847 19.234 
474 2.9292 40.324 33.412 7.5089 11.269 11.192 
475 61.772 97.694 51.159 52.463 76.901 34.014 
476 91.980 59.019 23.529 46.458 40.487 10.462 
477 78.184 50.055 88.939 45.712 33.743 76.787 
478 69.480 18.533 94.490 35.720 18.593 84.941 
479 63.510 4.3786 96.082 32.182 15.369 87.688 
480 73.886 84.614 92.226 60.758 66.086 88.385 
481 10.679 50.408 96.954 25.824 23.319 91.330 
482 57.798 73.405 7.3858 30.729 42.483 8.0445 
483 53.794 56.386 89.085 34.835 31.462 77.186 
484 74.927 12.022 29.172 24.001 13.423 8.6706 
485 36.599 44.450 96.654 27.928 21.705 90.295 
486 25.345 93.568 43.359 36.396 64.107 26.086 
487 75.658 65.852 45.999 39.802 41.191 23.472 
488 84.585 88.046 14.395 55.803 68.591 12.870 
489 79.094 74.292 7.1810 43.255 49.654 8.7462 
490 73.690 33.257 38.221 26.869 18.840 14.393 
491 10.631 4.8637 95.808 17.799 7.9868 86.466 
492 91.966 70.244 39.897 53.108 51.317 20.349 
493 39.863 25.012 51.697 12.301 9.0270 23.511 
494 59.785 26.209 65.737 22.845 14.393 38.942 
495 98.020 68.675 96.965 71.879 58.179 95.655 
496 11.707 46.112 55.714 12.731 15.937 28.636 
497 8.6178 76.611 23.201 21.514 40.280 11.621 
498 10.702 21.331 71.677 11.219 7.2582 45.914 
499 21.077 58.544 8.0019 13.307 23.190 5.3094 
500 48.172 66.699 78.884 33.768 37.831 61.201 
END_DATA
CTI1   

DESCRIPTOR "Argyll Calibration Target chart information 1"
ORIGINATOR "Argyll targen"
