.icc/lappy.cal
CAL    

DESCRIPTOR "Argyll Device Calibration Curves"
ORIGINATOR "Argyll dispcal"
CREATED "Sun Jan  2 16:05:01 2011"
KEYWORD "DEVICE_CLASS"
DEVICE_CLASS "DISPLAY"
KEYWORD "COLOR_REP"
COLOR_REP "RGB"
KEYWORD "DEVICE_TYPE"
DEVICE_TYPE "LCD"
KEYWORD "NATIVE_TARGET_WHITE"
NATIVE_TARGET_WHITE ""
KEYWORD "TARGET_WHITE_XYZ"
TARGET_WHITE_XYZ "155.144249 162.216741 199.931128"
KEYWORD "TARGET_GAMMA"
TARGET_GAMMA "2.400000"
KEYWORD "DEGREE_OF_BLACK_OUTPUT_OFFSET"
DEGREE_OF_BLACK_OUTPUT_OFFSET "1.000000"
KEYWORD "BLACK_POINT_CORRECTION"
BLACK_POINT_CORRECTION "0.000000"
KEYWORD "BLACK_NEUTRAL_BLEND_RATE"
BLACK_NEUTRAL_BLEND_RATE "4.000000"
KEYWORD "QUALITY"
QUALITY "medium"

KEYWORD "RGB_I"
NUMBER_OF_FIELDS 4
BEGIN_DATA_FORMAT
RGB_I RGB_R RGB_G RGB_B 
END_DATA_FORMAT

NUMBER_OF_SETS 256
BEGIN_DATA
0.0000 0.0000 0.0000 0.0000 
3.9216e-03 0.0000 6.0339e-04 0.0000 
7.8431e-03 0.0000 2.0730e-03 0.0000 
0.011765 0.0000 3.5817e-03 0.0000 
0.015686 0.0000 5.1312e-03 0.0000 
0.019608 1.4675e-04 6.7231e-03 0.0000 
0.023529 1.6204e-03 8.3592e-03 0.0000 
0.027451 3.1438e-03 0.010041 7.7339e-04 
0.031373 4.7194e-03 0.011771 1.9479e-03 
0.035294 6.3501e-03 0.013552 3.1506e-03 
0.039216 8.0387e-03 0.015384 4.3827e-03 
0.043137 9.7885e-03 0.017272 5.6450e-03 
0.047059 0.011603 0.019216 6.9389e-03 
0.050980 0.013485 0.021220 8.2654e-03 
0.054902 0.015439 0.023287 9.6259e-03 
0.058824 0.017470 0.025419 0.011022 
0.062745 0.019581 0.027620 0.012454 
0.066667 0.021779 0.029893 0.013925 
0.070588 0.024067 0.032242 0.015435 
0.074510 0.026452 0.034670 0.016986 
0.078431 0.028939 0.037177 0.018581 
0.082353 0.031533 0.039764 0.020220 
0.086275 0.034236 0.042431 0.021906 
0.090196 0.037050 0.045178 0.023640 
0.094118 0.039978 0.048003 0.025426 
0.098039 0.043022 0.050909 0.027265 
0.10196 0.046182 0.053893 0.029159 
0.10588 0.049458 0.056956 0.031109 
0.10980 0.052849 0.060097 0.033116 
0.11373 0.056351 0.063312 0.035182 
0.11765 0.059958 0.066600 0.037306 
0.12157 0.063668 0.069957 0.039491 
0.12549 0.067477 0.073385 0.041736 
0.12941 0.071382 0.076883 0.044042 
0.13333 0.075383 0.080453 0.046409 
0.13725 0.079480 0.084096 0.048835 
0.14118 0.083663 0.087804 0.051321 
0.14510 0.087932 0.091573 0.053867 
0.14902 0.092275 0.095403 0.056469 
0.15294 0.096696 0.099292 0.059125 
0.15686 0.10117 0.10324 0.061835 
0.16078 0.10569 0.10722 0.064595 
0.16471 0.11025 0.11122 0.067406 
0.16863 0.11483 0.11525 0.070264 
0.17255 0.11941 0.11929 0.073170 
0.17647 0.12402 0.12334 0.076118 
0.18039 0.12861 0.12740 0.079110 
0.18431 0.13319 0.13146 0.082141 
0.18824 0.13776 0.13549 0.085205 
0.19216 0.14234 0.13950 0.088308 
0.19608 0.14691 0.14351 0.091442 
0.20000 0.15144 0.14751 0.094605 
0.20392 0.15595 0.15150 0.097800 
0.20784 0.16044 0.15547 0.10100 
0.21176 0.16491 0.15945 0.10422 
0.21569 0.16939 0.16341 0.10744 
0.21961 0.17383 0.16738 0.11067 
0.22353 0.17821 0.17137 0.11389 
0.22745 0.18256 0.17536 0.11712 
0.23137 0.18688 0.17933 0.12036 
0.23529 0.19117 0.18328 0.12361 
0.23922 0.19542 0.18722 0.12684 
0.24314 0.19967 0.19115 0.13005 
0.24706 0.20391 0.19505 0.13325 
0.25098 0.20812 0.19894 0.13644 
0.25490 0.21231 0.20282 0.13962 
0.25882 0.21647 0.20672 0.14280 
0.26275 0.22064 0.21062 0.14597 
0.26667 0.22482 0.21453 0.14912 
0.27059 0.22900 0.21843 0.15226 
0.27451 0.23320 0.22234 0.15539 
0.27843 0.23741 0.22626 0.15851 
0.28235 0.24163 0.23021 0.16163 
0.28627 0.24588 0.23418 0.16475 
0.29020 0.25016 0.23816 0.16788 
0.29412 0.25443 0.24216 0.17100 
0.29804 0.25869 0.24617 0.17410 
0.30196 0.26292 0.25020 0.17718 
0.30588 0.26714 0.25427 0.18026 
0.30980 0.27135 0.25835 0.18334 
0.31373 0.27551 0.26243 0.18641 
0.31765 0.27965 0.26649 0.18947 
0.32157 0.28379 0.27055 0.19252 
0.32549 0.28798 0.27461 0.19557 
0.32941 0.29220 0.27866 0.19864 
0.33333 0.29644 0.28270 0.20171 
0.33725 0.30068 0.28674 0.20479 
0.34118 0.30490 0.29081 0.20786 
0.34510 0.30911 0.29490 0.21092 
0.34902 0.31331 0.29902 0.21398 
0.35294 0.31752 0.30314 0.21702 
0.35686 0.32171 0.30725 0.22007 
0.36078 0.32590 0.31135 0.22312 
0.36471 0.33012 0.31544 0.22618 
0.36863 0.33437 0.31951 0.22922 
0.37255 0.33863 0.32356 0.23225 
0.37647 0.34289 0.32759 0.23529 
0.38039 0.34716 0.33161 0.23832 
0.38431 0.35142 0.33564 0.24135 
0.38824 0.35570 0.33970 0.24438 
0.39216 0.35998 0.34379 0.24742 
0.39608 0.36430 0.34790 0.25048 
0.40000 0.36865 0.35203 0.25355 
0.40392 0.37302 0.35619 0.25663 
0.40784 0.37739 0.36037 0.25973 
0.41176 0.38174 0.36457 0.26283 
0.41569 0.38607 0.36881 0.26594 
0.41961 0.39037 0.37307 0.26907 
0.42353 0.39463 0.37737 0.27221 
0.42745 0.39890 0.38167 0.27536 
0.43137 0.40321 0.38596 0.27852 
0.43529 0.40759 0.39024 0.28171 
0.43922 0.41201 0.39449 0.28494 
0.44314 0.41647 0.39871 0.28821 
0.44706 0.42094 0.40293 0.29152 
0.45098 0.42543 0.40721 0.29485 
0.45490 0.42993 0.41153 0.29821 
0.45882 0.43441 0.41588 0.30158 
0.46275 0.43885 0.42025 0.30495 
0.46667 0.44328 0.42463 0.30835 
0.47059 0.44774 0.42902 0.31176 
0.47451 0.45221 0.43342 0.31518 
0.47843 0.45667 0.43782 0.31861 
0.48235 0.46111 0.44220 0.32206 
0.48627 0.46556 0.44657 0.32552 
0.49020 0.46999 0.45096 0.32901 
0.49412 0.47441 0.45536 0.33251 
0.49804 0.47883 0.45976 0.33601 
0.50196 0.48324 0.46414 0.33951 
0.50588 0.48764 0.46854 0.34300 
0.50980 0.49204 0.47292 0.34650 
0.51373 0.49644 0.47730 0.35000 
0.51765 0.50089 0.48168 0.35350 
0.52157 0.50533 0.48606 0.35700 
0.52549 0.50976 0.49044 0.36050 
0.52941 0.51416 0.49482 0.36402 
0.53333 0.51855 0.49920 0.36755 
0.53725 0.52291 0.50360 0.37111 
0.54118 0.52725 0.50801 0.37468 
0.54510 0.53157 0.51242 0.37823 
0.54902 0.53587 0.51681 0.38174 
0.55294 0.54015 0.52119 0.38523 
0.55686 0.54441 0.52555 0.38867 
0.56078 0.54866 0.52991 0.39207 
0.56471 0.55292 0.53424 0.39544 
0.56863 0.55717 0.53858 0.39883 
0.57255 0.56140 0.54290 0.40227 
0.57647 0.56558 0.54720 0.40576 
0.58039 0.56972 0.55151 0.40929 
0.58431 0.57389 0.55582 0.41284 
0.58824 0.57810 0.56013 0.41642 
0.59216 0.58232 0.56443 0.42001 
0.59608 0.58654 0.56870 0.42363 
0.60000 0.59076 0.57296 0.42727 
0.60392 0.59500 0.57724 0.43093 
0.60784 0.59924 0.58154 0.43460 
0.61176 0.60350 0.58584 0.43827 
0.61569 0.60778 0.59013 0.44195 
0.61961 0.61206 0.59441 0.44567 
0.62353 0.61635 0.59867 0.44940 
0.62745 0.62068 0.60293 0.45314 
0.63137 0.62503 0.60721 0.45688 
0.63529 0.62937 0.61150 0.46062 
0.63922 0.63371 0.61581 0.46437 
0.64314 0.63804 0.62013 0.46813 
0.64706 0.64234 0.62448 0.47190 
0.65098 0.64660 0.62885 0.47568 
0.65490 0.65081 0.63320 0.47946 
0.65882 0.65493 0.63753 0.48326 
0.66275 0.65898 0.64185 0.48706 
0.66667 0.66294 0.64613 0.49088 
0.67059 0.66689 0.65037 0.49470 
0.67451 0.67091 0.65457 0.49854 
0.67843 0.67503 0.65869 0.50238 
0.68235 0.67924 0.66276 0.50620 
0.68627 0.68354 0.66676 0.51001 
0.69020 0.68791 0.67079 0.51380 
0.69412 0.69234 0.67491 0.51761 
0.69804 0.69685 0.67912 0.52142 
0.70196 0.70141 0.68341 0.52525 
0.70588 0.70600 0.68777 0.52909 
0.70980 0.71064 0.69220 0.53293 
0.71373 0.71532 0.69669 0.53680 
0.71765 0.72000 0.70125 0.54068 
0.72157 0.72468 0.70583 0.54456 
0.72549 0.72936 0.71044 0.54848 
0.72941 0.73406 0.71505 0.55243 
0.73333 0.73876 0.71968 0.55642 
0.73725 0.74345 0.72431 0.56042 
0.74118 0.74814 0.72893 0.56443 
0.74510 0.75282 0.73356 0.56846 
0.74902 0.75745 0.73818 0.57254 
0.75294 0.76205 0.74279 0.57669 
0.75686 0.76661 0.74741 0.58089 
0.76078 0.77113 0.75201 0.58513 
0.76471 0.77563 0.75659 0.58940 
0.76863 0.78009 0.76116 0.59370 
0.77255 0.78451 0.76572 0.59803 
0.77647 0.78887 0.77028 0.60241 
0.78039 0.79317 0.77484 0.60682 
0.78431 0.79737 0.77939 0.61127 
0.78824 0.80152 0.78394 0.61577 
0.79216 0.80569 0.78847 0.62034 
0.79608 0.80986 0.79295 0.62499 
0.80000 0.81404 0.79739 0.62966 
0.80392 0.81820 0.80177 0.63437 
0.80784 0.82233 0.80616 0.63910 
0.81176 0.82643 0.81058 0.64384 
0.81569 0.83050 0.81501 0.64857 
0.81961 0.83454 0.81944 0.65324 
0.82353 0.83854 0.82387 0.65784 
0.82745 0.84250 0.82830 0.66237 
0.83137 0.84643 0.83273 0.66685 
0.83529 0.85032 0.83715 0.67139 
0.83922 0.85416 0.84157 0.67602 
0.84314 0.85797 0.84600 0.68080 
0.84706 0.86181 0.85041 0.68570 
0.85098 0.86569 0.85482 0.69070 
0.85490 0.86957 0.85923 0.69581 
0.85882 0.87348 0.86368 0.70101 
0.86275 0.87739 0.86815 0.70626 
0.86667 0.88128 0.87263 0.71155 
0.87059 0.88514 0.87710 0.71690 
0.87451 0.88897 0.88154 0.72227 
0.87843 0.89279 0.88595 0.72767 
0.88235 0.89660 0.89030 0.73311 
0.88627 0.90039 0.89464 0.73859 
0.89020 0.90416 0.89896 0.74412 
0.89412 0.90787 0.90325 0.74970 
0.89804 0.91154 0.90748 0.75537 
0.90196 0.91519 0.91166 0.76118 
0.90588 0.91880 0.91581 0.76714 
0.90980 0.92237 0.91991 0.77325 
0.91373 0.92589 0.92395 0.77953 
0.91765 0.92940 0.92794 0.78593 
0.92157 0.93287 0.93188 0.79240 
0.92549 0.93632 0.93577 0.79886 
0.92941 0.93975 0.93961 0.80548 
0.93333 0.94316 0.94339 0.81242 
0.93725 0.94657 0.94712 0.81968 
0.94118 0.94997 0.95080 0.82728 
0.94510 0.95337 0.95443 0.83532 
0.94902 0.95676 0.95801 0.84391 
0.95294 0.96015 0.96154 0.85311 
0.95686 0.96354 0.96501 0.86299 
0.96078 0.96692 0.96843 0.87365 
0.96471 0.97029 0.97179 0.88480 
0.96863 0.97365 0.97511 0.89621 
0.97255 0.97699 0.97838 0.90792 
0.97647 0.98031 0.98160 0.91987 
0.98039 0.98363 0.98478 0.93217 
0.98431 0.98693 0.98791 0.94478 
0.98824 0.99022 0.99100 0.95787 
0.99216 0.99349 0.99404 0.97138 
0.99608 0.99675 0.99704 0.98540 
1.0000 1.0000 1.0000 1.0000 
END_DATA
CAL    

DESCRIPTOR "Argyll Calibration options and model"
ORIGINATOR "Argyll dispcal"
CREATED "Sun Jan  2 16:05:01 201"

KEYWORD "R_P"
KEYWORD "G_P"
KEYWORD "B_P"
NUMBER_OF_FIELDS 3
BEGIN_DATA_FORMAT
R_P G_P B_P 
END_DATA_FORMAT

NUMBER_OF_SETS 32
BEGIN_DATA
3.8131e-03 1.4304e-03 5.3911e-03 
0.99619 0.99857 0.99461 
1.6576 1.7275 0.51324 
0.41986 0.40152 0.59545 
0.17649 0.19357 0.18732 
0.13611 0.10916 0.18747 
0.085324 0.069268 0.12563 
0.082297 0.053973 0.081827 
0.053579 0.064505 0.076449 
0.042012 0.045842 -5.5407e-03 
0.046776 0.038534 0.053967 
0.050441 0.047978 0.045140 
0.048360 0.030741 0.040539 
0.016309 0.023566 0.029283 
0.046609 0.045538 0.031823 
0.020685 0.027451 0.020758 
0.036516 4.9435e-03 0.044994 
0.013808 0.029213 0.016968 
0.029154 0.051645 5.6730e-03 
0.018850 0.033999 0.030414 
0.012621 0.016611 9.4512e-03 
0.020203 0.014816 0.016413 
0.019821 0.016872 0.011454 
-4.7642e-03 0.026648 0.014304 
0.016741 0.034383 0.013119 
0.010024 0.023958 0.012486 
0.015025 0.028506 0.010427 
0.017043 0.031703 9.3630e-03 
5.6889e-03 9.5018e-03 0.010867 
1.5475e-03 2.9291e-03 0.011636 
4.9334e-03 0.019330 0.014028 
3.3498e-03 0.019038 8.8022e-03 
END_DATA
